gilbertguide/assets/images/item_4130.svg

<?xml version="1.0" standalone="no"?><!DOCTYPE svg PUBLIC "-//W3C//DTD SVG 1.1//EN" "http://www.w3.org/Graphics/SVG/1.1/DTD/svg11.dtd"><svg xmlns="http://www.w3.org/2000/svg" version="1.1" width="163.5px" height="32.8px" viewBox="0 0 163.5 32.8"><desc>Video 00:16</desc><defs/><g id="Polygon14359"><path d="m4.3 14.3l-4.2-12.9l1.8 0c0 0 1.96 6.35 2 6.4c.5 1.7 1 3.2 1.3 4.7c0 0 .1 0 .1 0c.3-1.4.8-3.1 1.4-4.7c.03-.03 2.2-6.4 2.2-6.4l1.8 0l-4.6 12.9l-1.8 0zm7.4 0l0-9.2l1.7 0l0 9.2l-1.7 0zm1.8-11.8c0 .5-.4 1-1 1c-.6 0-1-.5-1-1c0-.6.4-1.1 1-1.1c.6 0 1 .5 1 1.1zm10.6-1.7c0 0-.05 11.08 0 11.1c0 .8 0 1.7 0 2.4c.03-.05-1.5 0-1.5 0l0-1.6c0 0-.08-.05-.1 0c-.5 1-1.6 1.8-3.1 1.8c-2.2 0-3.9-1.9-3.9-4.7c-.1-3.1 1.9-4.9 4.1-4.9c1.4 0 2.3.6 2.8 1.4c-.04-.05 0 0 0 0l0-5.5l1.7 0zm-1.7 8c0-.2 0-.5-.1-.7c-.2-1.1-1.1-1.9-2.4-1.9c-1.7 0-2.7 1.5-2.7 3.5c0 1.9.9 3.4 2.7 3.4c1.1 0 2.1-.7 2.4-2c.1-.2.1-.4.1-.7c0 0 0-1.6 0-1.6zm5.4 1.2c0 2.2 1.4 3.1 3.1 3.1c1.2 0 2-.2 2.6-.4c0 0 .3 1.2.3 1.2c-.6.2-1.6.6-3.1.6c-2.8 0-4.5-1.9-4.5-4.7c0-2.8 1.6-4.9 4.3-4.9c3 0 3.8 2.6 3.8 4.3c0 .3 0 .6-.1.8c0 0-6.4 0-6.4 0zm4.9-1.2c0-1.1-.5-2.7-2.3-2.7c-1.7 0-2.5 1.5-2.6 2.7c0 0 4.9 0 4.9 0zm12 .8c0 3.4-2.4 4.9-4.6 4.9c-2.5 0-4.4-1.9-4.4-4.8c0-3 2-4.8 4.6-4.8c2.6 0 4.4 1.9 4.4 4.7zm-7.3.1c0 2 1.2 3.5 2.8 3.5c1.6 0 2.8-1.5 2.8-3.6c0-1.5-.8-3.5-2.8-3.5c-1.9 0-2.8 1.8-2.8 3.6zm13.6 6.7l0-15.2l3.5 0l0 1.1l-2.2 0l0 13l2.2 0l0 1.1l-3.5 0zm12.9-8.5c0 4.2-1.6 6.6-4.3 6.6c-2.4 0-4-2.3-4.1-6.4c0-4.1 1.8-6.4 4.3-6.4c2.6 0 4.1 2.3 4.1 6.2zm-6.7.2c0 3.2 1 5.1 2.5 5.1c1.7 0 2.5-2 2.5-5.2c0-3-.7-5-2.5-5c-1.4 0-2.5 1.8-2.5 5.1zm16.5-.2c0 4.2-1.6 6.6-4.3 6.6c-2.4 0-4.1-2.3-4.1-6.4c0-4.1 1.8-6.4 4.3-6.4c2.6 0 4.1 2.3 4.1 6.2zm-6.7.2c0 3.2.9 5.1 2.5 5.1c1.7 0 2.5-2 2.5-5.2c0-3-.8-5-2.5-5c-1.5 0-2.5 1.8-2.5 5.1zm8.3-1.5c0-.7.5-1.2 1.2-1.2c.6 0 1.1.5 1.1 1.2c0 .6-.5 1.2-1.2 1.2c-.6 0-1.1-.6-1.1-1.2zm0 6.7c0-.7.5-1.2 1.2-1.2c.6 0 1.1.5 1.1 1.2c0 .6-.5 1.2-1.2 1.2c-.6 0-1.1-.6-1.1-1.2zm7.4-9.8l0 0l-2.1 1.1l-.4-1.3l2.7-1.4l1.5 0l0 12.4l-1.7 0l0-10.8zm13.2-.4c-.3 0-.8 0-1.2.1c-2.7.4-4.1 2.3-4.3 4.3c0 0 0 0 0 0c.6-.8 1.6-1.4 3-1.4c2.2 0 3.7 1.6 3.7 4c0 2.3-1.5 4.4-4.1 4.4c-2.6 0-4.3-2.1-4.3-5.3c0-2.4.8-4.4 2-5.6c1.1-1 2.4-1.6 4-1.8c.5-.1.9-.1 1.2-.1c0 0 0 1.4 0 1.4zm-.5 7.1c0-1.8-1-2.8-2.5-2.8c-1 0-2 .6-2.4 1.5c-.1.2-.2.4-.2.7c0 2 1 3.6 2.7 3.6c1.5 0 2.4-1.2 2.4-3zm6.2-9l0 15.2l-3.5 0l0-1.1l2.2 0l0-13l-2.2 0l0-1.1l3.5 0z" stroke="none" fill="#fff"/></g></svg>

<?xml version="1.0" standalone="no"?><!DOCTYPE svg PUBLIC "-//W3C//DTD SVG 1.1//EN" "http://www.w3.org/Graphics/SVG/1.1/DTD/svg11.dtd"><svg xmlns="http://www.w3.org/2000/svg" version="1.1" width="163.5px" height="32.8px" viewBox="0 0 163.5 32.8">  <desc>Video 00:16</desc>  <defs/>  <g id="Polygon14256">    <path d="M 4.3 14.3 L 0.1 1.4 L 1.9 1.4 C 1.9 1.4 3.86 7.75 3.9 7.8 C 4.4 9.5 4.9 11 5.2 12.5 C 5.2 12.5 5.3 12.5 5.3 12.5 C 5.6 11.1 6.1 9.4 6.7 7.8 C 6.73 7.77 8.9 1.4 8.9 1.4 L 10.7 1.4 L 6.1 14.3 L 4.3 14.3 Z M 11.7 14.3 L 11.7 5.1 L 13.4 5.1 L 13.4 14.3 L 11.7 14.3 Z M 13.5 2.5 C 13.5 3 13.1 3.5 12.5 3.5 C 11.9 3.5 11.5 3 11.5 2.5 C 11.5 1.9 11.9 1.4 12.5 1.4 C 13.1 1.4 13.5 1.9 13.5 2.5 Z M 24.1 0.8 C 24.1 0.8 24.05 11.88 24.1 11.9 C 24.1 12.7 24.1 13.6 24.1 14.3 C 24.13 14.25 22.6 14.3 22.6 14.3 L 22.6 12.7 C 22.6 12.7 22.52 12.65 22.5 12.7 C 22 13.7 20.9 14.5 19.4 14.5 C 17.2 14.5 15.5 12.6 15.5 9.8 C 15.4 6.7 17.4 4.9 19.6 4.9 C 21 4.9 21.9 5.5 22.4 6.3 C 22.36 6.25 22.4 6.3 22.4 6.3 L 22.4 0.8 L 24.1 0.8 Z M 22.4 8.8 C 22.4 8.6 22.4 8.3 22.3 8.1 C 22.1 7 21.2 6.2 19.9 6.2 C 18.2 6.2 17.2 7.7 17.2 9.7 C 17.2 11.6 18.1 13.1 19.9 13.1 C 21 13.1 22 12.4 22.3 11.1 C 22.4 10.9 22.4 10.7 22.4 10.4 C 22.4 10.4 22.4 8.8 22.4 8.8 Z M 27.8 10 C 27.8 12.2 29.2 13.1 30.9 13.1 C 32.1 13.1 32.9 12.9 33.5 12.7 C 33.5 12.7 33.8 13.9 33.8 13.9 C 33.2 14.1 32.2 14.5 30.7 14.5 C 27.9 14.5 26.2 12.6 26.2 9.8 C 26.2 7 27.8 4.9 30.5 4.9 C 33.5 4.9 34.3 7.5 34.3 9.2 C 34.3 9.5 34.3 9.8 34.2 10 C 34.2 10 27.8 10 27.8 10 Z M 32.7 8.8 C 32.7 7.7 32.2 6.1 30.4 6.1 C 28.7 6.1 27.9 7.6 27.8 8.8 C 27.8 8.8 32.7 8.8 32.7 8.8 Z M 44.7 9.6 C 44.7 13 42.3 14.5 40.1 14.5 C 37.6 14.5 35.7 12.6 35.7 9.7 C 35.7 6.7 37.7 4.9 40.3 4.9 C 42.9 4.9 44.7 6.8 44.7 9.6 Z M 37.4 9.7 C 37.4 11.7 38.6 13.2 40.2 13.2 C 41.8 13.2 43 11.7 43 9.6 C 43 8.1 42.2 6.1 40.2 6.1 C 38.3 6.1 37.4 7.9 37.4 9.7 Z M 51 16.4 L 51 1.2 L 54.5 1.2 L 54.5 2.3 L 52.3 2.3 L 52.3 15.3 L 54.5 15.3 L 54.5 16.4 L 51 16.4 Z M 63.9 7.9 C 63.9 12.1 62.3 14.5 59.6 14.5 C 57.2 14.5 55.6 12.2 55.5 8.1 C 55.5 4 57.3 1.7 59.8 1.7 C 62.4 1.7 63.9 4 63.9 7.9 Z M 57.2 8.1 C 57.2 11.3 58.2 13.2 59.7 13.2 C 61.4 13.2 62.2 11.2 62.2 8 C 62.2 5 61.5 3 59.7 3 C 58.3 3 57.2 4.8 57.2 8.1 Z M 73.7 7.9 C 73.7 12.1 72.1 14.5 69.4 14.5 C 67 14.5 65.3 12.2 65.3 8.1 C 65.3 4 67.1 1.7 69.6 1.7 C 72.2 1.7 73.7 4 73.7 7.9 Z M 67 8.1 C 67 11.3 67.9 13.2 69.5 13.2 C 71.2 13.2 72 11.2 72 8 C 72 5 71.2 3 69.5 3 C 68 3 67 4.8 67 8.1 Z M 75.3 6.6 C 75.3 5.9 75.8 5.4 76.5 5.4 C 77.1 5.4 77.6 5.9 77.6 6.6 C 77.6 7.2 77.1 7.8 76.4 7.8 C 75.8 7.8 75.3 7.2 75.3 6.6 Z M 75.3 13.3 C 75.3 12.6 75.8 12.1 76.5 12.1 C 77.1 12.1 77.6 12.6 77.6 13.3 C 77.6 13.9 77.1 14.5 76.4 14.5 C 75.8 14.5 75.3 13.9 75.3 13.3 Z M 82.7 3.5 L 82.7 3.5 L 80.6 4.6 L 80.2 3.3 L 82.9 1.9 L 84.4 1.9 L 84.4 14.3 L 82.7 14.3 L 82.7 3.5 Z M 95.9 3.1 C 95.6 3.1 95.1 3.1 94.7 3.2 C 92 3.6 90.6 5.5 90.4 7.5 C 90.4 7.5 90.4 7.5 90.4 7.5 C 91 6.7 92 6.1 93.4 6.1 C 95.6 6.1 97.1 7.7 97.1 10.1 C 97.1 12.4 95.6 14.5 93 14.5 C 90.4 14.5 88.7 12.4 88.7 9.2 C 88.7 6.8 89.5 4.8 90.7 3.6 C 91.8 2.6 93.1 2 94.7 1.8 C 95.2 1.7 95.6 1.7 95.9 1.7 C 95.9 1.7 95.9 3.1 95.9 3.1 Z M 95.4 10.2 C 95.4 8.4 94.4 7.4 92.9 7.4 C 91.9 7.4 90.9 8 90.5 8.9 C 90.4 9.1 90.3 9.3 90.3 9.6 C 90.3 11.6 91.3 13.2 93 13.2 C 94.5 13.2 95.4 12 95.4 10.2 Z M 101.6 1.2 L 101.6 16.4 L 98.1 16.4 L 98.1 15.3 L 100.3 15.3 L 100.3 2.3 L 98.1 2.3 L 98.1 1.2 L 101.6 1.2 Z " stroke="none" fill="#fff"/>  </g></svg>
